X:36
T:French Waltz
O:No 36 Page 15 Willam Clarke of Feltwell   MS 1858
N:Bottom of page
I:abc2nwc
M:3/8
L:1/16
K:C
G4E2|c4G2|e4c2|B4z2|d4B2|f4d2|e2g2B2|c4z2:|
|:e4f2|a2g2e2|g2f2d2|e4c2|e4f2|a2g2e2|g2f2d2|c4z2:|
|:A2B2c2|c2B2A2|^G2A2B2|E4z2|B2c2d2|B2c2d2|{d}c4B2|A4z2:||

